X:1
T:Córdoba, 87.87.87 D
T:Córdoba, 87.87.87 D
T:William Batchelder Bradbury, 1864
T:Public Domain Courtesy of the Cyber Hymnal™
C:William Batchelder Bradbury, 1864
Z:Public Domain
Z:Courtesy of the Cyber Hymnal™
%%score ( 1 2 ) ( 3 4 )
L:1/8
Q:1/4=78
M:2/4
K:A
V:1 treble 
V:2 treble 
V:3 bass 
V:4 bass 
V:1
!f! [Ec]>[Ec] [Fd][Ec] | [Ec]>[Ec] [Fd][Ec] | [Ac][GB] [GB][FA] | [Ac][GB] [GB]2 | %4
 [Ec]>[Ec] [Fd][Ec] | [Ec][Ec] [Fd][Ec] | [Ec][DB] [DB][CA] | [Ec][DB] [CA]2"^End" | %8
 [GB]>[GB] [GB][GB] | [GB][Ac] [GB]!fermata!E | [GB]>[GB] [GB][GB] | %11
"^riten." [GB][Ac] !fermata![Bd]2 | c>c dc | BA GF |"^riten." CF AG | F^E !fermata!F2 | %16
 [Ec]>[Ec] [Fd][Ec] | [Ec]>[Ec] [Fd][Ec] | [Ac][GB] [GB][FA] | [Ac][GB] [GB]2 | %20
 [Ec]>[Ec] [Fd][Ec] | [Ec][Ec] [Fd][Ec] | [Ec][DB] [DB][CA] | [Ec][DB] [CA]6 |] %24
V:2
 x4 | x4 | x4 | x4 | x4 | x4 | x4 | x4 | x4 | x3 E | x4 | x4 | c>c dc | BA GF | CF AG | F^E F2 | %16
 x4 | x4 | x4 | x4 | x4 | x4 | x4 | x8 |] %24
V:3
 A,>A, A,A, | A,>A, A,A, | [E,A,][E,B,] [E,B,][E,E] | [A,E][E,E] [E,E]2 | A,>A, A,A, | A,A, A,A, | %6
 A,[E,G,] [E,G,][F,A,] | [E,A,][E,G,] [A,,A,]2 | E,>E, E,E, | E,E, E,!fermata!E, | E,>E, E,E, | %11
 E,E, !fermata!E,2 | C>C DC | B,A, G,F, | C,F, A,G, | F,^E, !fermata!F,2 | A,>A, A,A, | %17
 A,>A, A,A, | [E,A,][E,B,] [E,B,][E,E] | [A,E][E,E] [E,E]2 | A,>A, A,A, | A,A, A,A, | %22
 A,[E,G,] [E,G,][F,A,] | [E,A,][E,G,] [A,,A,]6 |] %24
V:4
 A,>A, A,A, | A,>A, A,A, | x4 | x4 | A,>A, A,A, | A,A, A,A, | A, x3 | x4 | x4 | x4 | x4 | x4 | %12
 C>C DC | B,A, G,F, | C,F, A,G, | F,^E, F,2 | A,>A, A,A, | A,>A, A,A, | x4 | x4 | A,>A, A,A, | %21
 A,A, A,A, | A, x3 | x8 |] %24

